dist/assets/img/user.svg

<svg width="40" height="40" viewBox="0 0 40 40" fill="none" xmlns="http://www.w3.org/2000/svg">
<circle cx="20" cy="20" r="20" fill="#E0E0E0"/>
<path d="M24.05 16.4C24.05 18.6368 22.2368 20.45 20 20.45V21.95C23.0652 21.95 25.55 19.4652 25.55 16.4H24.05ZM20 20.45C17.7632 20.45 15.95 18.6368 15.95 16.4H14.45C14.45 19.4652 16.9348 21.95 20 21.95V20.45ZM15.95 16.4C15.95 14.1632 17.7632 12.35 20 12.35V10.85C16.9348 10.85 14.45 13.3348 14.45 16.4H15.95ZM20 12.35C22.2368 12.35 24.05 14.1632 24.05 16.4H25.55C25.55 13.3348 23.0652 10.85 20 10.85V12.35ZM16.4 25.55H23.6V24.05H16.4V25.55ZM8.75 20C8.75 13.7868 13.7868 8.75 20 8.75V7.25C12.9584 7.25 7.25 12.9584 7.25 20H8.75ZM20 8.75C26.2132 8.75 31.25 13.7868 31.25 20H32.75C32.75 12.9584 27.0416 7.25 20 7.25V8.75ZM31.25 20C31.25 23.1905 29.9229 26.0697 27.7885 28.118L28.8271 29.2003C31.244 26.8808 32.75 23.6156 32.75 20H31.25ZM27.7885 28.118C25.7664 30.0585 23.0231 31.25 20 31.25V32.75C23.4256 32.75 26.537 31.3981 28.8271 29.2003L27.7885 28.118ZM23.6 25.55C25.5642 25.55 27.2033 26.949 27.5722 28.8053L29.0434 28.5129C28.5377 25.9683 26.2937 24.05 23.6 24.05V25.55ZM20 31.25C16.9769 31.25 14.2336 30.0585 12.2115 28.118L11.1729 29.2003C13.463 31.3981 16.5744 32.75 20 32.75V31.25ZM12.2115 28.118C10.0771 26.0697 8.75 23.1905 8.75 20H7.25C7.25 23.6156 8.75598 26.8808 11.1729 29.2003L12.2115 28.118ZM16.4 24.05C13.7063 24.05 11.4623 25.9683 10.9566 28.5129L12.4278 28.8053C12.7967 26.949 14.4358 25.55 16.4 25.55V24.05Z" fill="#383838"/>
</svg>

<svg width="40" height="40" fill="none" xmlns="http://www.w3.org/2000/svg"><circle cx="20" cy="20" r="20" fill="#E0E0E0"/><path d="M24.05 16.4A4.05 4.05 0 0 1 20 20.45v1.5a5.55 5.55 0 0 0 5.55-5.55h-1.5ZM20 20.45a4.05 4.05 0 0 1-4.05-4.05h-1.5A5.55 5.55 0 0 0 20 21.95v-1.5Zm-4.05-4.05A4.05 4.05 0 0 1 20 12.35v-1.5a5.55 5.55 0 0 0-5.55 5.55h1.5ZM20 12.35a4.05 4.05 0 0 1 4.05 4.05h1.5A5.55 5.55 0 0 0 20 10.85v1.5Zm-3.6 13.2h7.2v-1.5h-7.2v1.5ZM8.75 20c0-6.213 5.037-11.25 11.25-11.25v-1.5C12.958 7.25 7.25 12.958 7.25 20h1.5ZM20 8.75c6.213 0 11.25 5.037 11.25 11.25h1.5c0-7.042-5.708-12.75-12.75-12.75v1.5ZM31.25 20c0 3.19-1.327 6.07-3.462 8.118l1.04 1.082A12.716 12.716 0 0 0 32.75 20h-1.5Zm-3.462 8.118A11.21 11.21 0 0 1 20 31.25v1.5a12.71 12.71 0 0 0 8.827-3.55l-1.039-1.082ZM23.6 25.55a4.052 4.052 0 0 1 3.972 3.255l1.471-.292A5.552 5.552 0 0 0 23.6 24.05v1.5Zm-3.6 5.7a11.21 11.21 0 0 1-7.789-3.132L11.173 29.2A12.71 12.71 0 0 0 20 32.75v-1.5Zm-7.789-3.132A11.215 11.215 0 0 1 8.75 20h-1.5c0 3.616 1.506 6.88 3.923 9.2l1.038-1.082ZM16.4 24.05a5.552 5.552 0 0 0-5.443 4.463l1.47.292A4.052 4.052 0 0 1 16.4 25.55v-1.5Z" fill="#383838"/></svg>
